X:1
T:Schottishe Marmagne
C:Trad.
S:Musique du morvan Daniel et Eric Raillard
D:Retour Vers le Passé
M:4/4
L:1/8
Q:2/4=85
K:G
|:D2GA B2G2|B2e2 d4|dABc B2A2|AGAB A2G2|
D2GA B2G2|B2e2 d4|dABc BABc|B2A2 G4:|
|:B2G2 E2FG|F2E2 D4|DEFG AGAB|dcBA B2G2|
B2G2 E2FG|F2E2 D4|DEFG AGAB|dcBA G4:|]
